assets/Woman detective/Light/Flat/woman_detective_flat_light.svg

<svg width="32" height="32" viewBox="0 0 32 32" fill="none" xmlns="http://www.w3.org/2000/svg">
<path d="M23.1454 14.4314C23.3787 13.9214 23.5 13.3514 23.5 12.7514C23.5 11.9614 23.276 11.2214 22.8934 10.6114C22.5107 9.99136 22.3148 9.27136 22.3148 8.52136V8.51136C22.3148 8.51136 21.0873 7.47442 20.4856 6.7814C19.824 6.01952 19.7396 4.63136 18.6937 4.63136C18.4977 4.63136 18.3111 4.53136 18.1991 4.36136C17.5458 3.38136 16.4726 4.36121 15.25 4.36121C14.0368 4.36121 12.9635 3.38136 12.3009 4.36136C12.1982 4.53136 12.0116 4.63136 11.8063 4.63136C10.5917 4.63136 10.7276 6.39567 10.0704 7.38136C9.647 8.01645 8.18524 8.51136 8.18524 8.51136V8.52136C8.18524 9.26136 7.98925 9.99136 7.60662 10.6114C7.22398 11.2214 7 11.9614 7 12.7514C7 13.3514 7.13066 13.9214 7.35464 14.4314C7.4293 14.6014 7.4293 14.8014 7.35464 14.9714C7.13066 15.4714 7 16.0314 7 16.6314C7 18.7214 8.58654 20.4214 10.537 20.4214H19.963C21.9135 20.4214 23.5 18.7214 23.5 16.6314C23.5 16.0414 23.3693 15.4714 23.1454 14.9714C23.0707 14.8014 23.0707 14.6014 23.1454 14.4314Z" fill="#212121"/>
<path d="M22.9999 29.99L24.9119 26.316L22.9999 22C20.8841 20.0482 18.0528 19 15.0201 19C11.9672 19 9.12589 20.0282 6.99995 22L5.48267 26.316L6.99995 30H22.9999V29.99Z" fill="#433B6B"/>
<path d="M7 22V30H3C3.15666 29.042 3.37598 28.1045 3.67885 27.1771L3.71018 27.0853C4.3577 25.0981 5.50653 23.3554 7 22Z" fill="#635994"/>
<path d="M26.3351 27.1472C26.626 28.0812 26.8545 29.0355 27 30H23V22C24.5169 23.3706 25.6909 25.1269 26.3351 27.1472Z" fill="#635994"/>
<path d="M15.006 19C13.6188 19 12.2795 19.1703 11 19.4909L13.3734 30H16.6694L19 19.4809C17.7205 19.1703 16.3812 19 15.006 19Z" fill="#F4F4F4"/>
<path d="M14.4563 24.2622L13.25 21.7866H16.75L15.5437 24.2622L16.5 30H13.5L14.4563 24.2622Z" fill="#F92F60"/>
<path d="M12.75 23.646L15 21.9596L17.25 23.646C17.5476 23.8694 17.9881 23.713 18.0595 23.3668L19 19H11L11.9405 23.3668C12.0119 23.713 12.4524 23.8694 12.75 23.646Z" fill="#E6E6E6"/>
<path d="M15 21.75C15 21.75 13 20.8333 13 19.5V17.75H17V19.5C17 20.8333 15 21.75 15 21.75Z" fill="#F4C6AD"/>
<path d="M10.8044 17L13.5 29.9904V30H12.1424L7.03657 21.5293C6.86932 21.2402 6.9677 20.874 7.26284 20.7102L7.80392 20.4114C8.04002 20.2765 8.07937 19.9585 7.87278 19.785L5.66911 17.8673C5.32479 17.5589 5.54122 17 6.0036 17H10.8044Z" fill="#8D65C5"/>
<path d="M19.1989 17L16.5 29.9904V30H17.8494L22.9615 21.5293C23.129 21.2402 23.0305 20.874 22.735 20.7102L22.1932 20.4114C21.9569 20.2765 21.9174 19.9585 22.1243 19.785L24.3307 17.8673C24.6754 17.5589 24.4587 17 23.9958 17H19.1989Z" fill="#8D65C5"/>
<path d="M27.5 22C28.0514 22 28.5 22.4091 28.5 22.9119V25H26.5V22.9119C26.5 22.4091 26.9486 22 27.5 22Z" fill="#F4C6AD"/>
<path d="M25.75 20C27.4069 20 28.75 18.6569 28.75 17C28.75 15.3431 27.4069 14 25.75 14C24.0931 14 22.75 15.3431 22.75 17C22.75 18.6569 24.0931 20 25.75 20Z" fill="#00D1ED"/>
<path d="M24.8609 20.3851C23.362 19.9896 22.25 18.6195 22.25 17C22.25 15.0735 23.8235 13.5 25.75 13.5C27.6765 13.5 29.25 15.0735 29.25 17C29.25 18.6195 28.138 19.9896 26.6391 20.3851C26.862 20.6183 27 20.9382 27 21.29V24.49C27 25.2 26.438 25.78 25.75 25.78C25.062 25.78 24.5 25.2 24.5 24.49V21.29C24.5 20.9382 24.638 20.6183 24.8609 20.3851ZM22.9964 17C22.9964 18.5231 24.2269 19.7536 25.75 19.7536C27.2731 19.7536 28.5036 18.5231 28.5036 17C28.5036 15.4769 27.263 14.2464 25.75 14.2464C24.237 14.2464 22.9964 15.4769 22.9964 17Z" fill="#321B41"/>
<path d="M26.625 17.25C27.1083 17.25 27.5 16.8582 27.5 16.375C27.5 15.8918 27.1083 15.5 26.625 15.5C26.1418 15.5 25.75 15.8918 25.75 16.375C25.75 16.8582 26.1418 17.25 26.625 17.25Z" fill="#F4F4F4"/>
<path d="M23.8634 24.0214C23.4059 24.0214 23.0213 24.3843 23.0005 24.8434C22.9901 25.153 23.146 25.4306 23.3747 25.5801C23.146 25.7295 23.0005 25.9964 23.0005 26.2954C23.0005 26.5943 23.146 26.8505 23.3747 27.0107C23.146 27.1601 23.0005 27.427 23.0005 27.726C23.0005 28.0249 23.146 28.2811 23.3747 28.4413C23.146 28.6014 22.9901 28.8683 23.0005 29.1779C23.0109 29.6477 23.4059 30 23.8634 30H27.5332C28.0634 30 28.5 29.5623 28.5 29.0071V24.9929C28.5 24.4484 28.0738 24 27.5332 24H23.8634V24.0214Z" fill="#FFD7C2"/>
<path d="M11.5 12.8467C11.5 13.8132 10.7165 14.5967 9.75 14.5967C8.7835 14.5967 8 13.8132 8 12.8467C8 11.8802 8.7835 11.0967 9.75 11.0967C10.7165 11.0967 11.5 11.8802 11.5 12.8467Z" fill="#F4C6AD"/>
<path d="M22 12.8467C22 13.8132 21.2165 14.5967 20.25 14.5967C19.2835 14.5967 18.5 13.8132 18.5 12.8467C18.5 11.8802 19.2835 11.0967 20.25 11.0967C21.2165 11.0967 22 11.8802 22 12.8467Z" fill="#F4C6AD"/>
<path d="M19.2736 9.44932H15.799C14.424 9.44932 13.1326 8.76617 12.3522 7.62447C12.2314 7.43731 11.9434 7.46539 11.8598 7.68062L11.7762 7.8865C11.5253 8.49479 11.0608 8.97205 10.4848 9.23408C10.4476 9.2528 10.4105 9.26216 10.364 9.28087C10.1132 9.41189 9.51858 9.81429 9.5 10.853L9.63936 14.3436C9.76943 17.4318 12.1292 19.5 15 19.5C17.8708 19.5 20.2399 17.4318 20.3606 14.3436L20.5 11.0309C20.4907 9.55226 19.478 9.45868 19.2736 9.44932Z" fill="#FFD7C2"/>
<path d="M12.0495 11.2207C12.71 11.2207 13.2505 11.678 13.5907 12.1851C13.2983 12.2748 13.0136 12.3567 12.7316 12.4378C12.232 12.5816 11.7406 12.723 11.2288 12.9009L10.6683 12.3939C10.4281 12.1851 10.4481 11.8172 10.7083 11.6283C11.0787 11.3698 11.5791 11.2207 12.0495 11.2207Z" fill="black"/>
<path d="M18.2045 11.2207C17.5439 11.2207 17.0035 11.678 16.6632 12.1851C16.9716 12.2808 17.2727 12.3677 17.5725 12.4543C18.0511 12.5925 18.5268 12.7298 19.0252 12.9009L19.5856 12.3939C19.8158 12.1851 19.8058 11.8073 19.5456 11.6283C19.1753 11.3698 18.6749 11.2207 18.2045 11.2207Z" fill="black"/>
<path d="M10.6582 12.5737C10.8383 11.8678 11.4788 11.3408 12.2495 11.3408C13.0501 11.3408 13.7207 11.9075 13.8708 12.6532C13.9008 12.8222 13.7707 12.9713 13.6006 12.9713H10.9784C10.7682 12.9713 10.6081 12.7725 10.6582 12.5737Z" fill="white"/>
<path d="M19.5857 12.5737C19.4055 11.8678 18.765 11.3408 17.9943 11.3408C17.1937 11.3408 16.5331 11.9075 16.383 12.6532C16.353 12.8222 16.4831 12.9713 16.6532 12.9713H19.2654C19.4756 12.9713 19.6357 12.7725 19.5857 12.5737Z" fill="white"/>
<path d="M11.4381 12.6924C11.4381 12.1157 11.9085 11.6484 12.489 11.6484C13.0695 11.6484 13.5399 12.1157 13.5399 12.6924C13.5399 12.7918 13.5198 12.8813 13.4998 12.9707H11.4781C11.4481 12.8813 11.4381 12.7918 11.4381 12.6924Z" fill="#7D4533"/>
<path d="M18.805 12.6924C18.805 12.1157 18.3346 11.6484 17.7542 11.6484C17.1737 11.6484 16.7033 12.1157 16.7033 12.6924C16.7033 12.7918 16.7233 12.8813 16.7433 12.9707H18.765C18.795 12.8813 18.805 12.7918 18.805 12.6924Z" fill="#7D4533"/>
<path d="M12.4892 12.0957C12.8192 12.0957 13.0892 12.3641 13.0892 12.6922C13.0892 12.7917 13.0692 12.8911 13.0192 12.9706H11.9592C11.9192 12.8911 11.8892 12.7917 11.8892 12.6922C11.8892 12.3641 12.1592 12.0957 12.4892 12.0957Z" fill="black"/>
<path d="M17.7536 12.0957C17.4236 12.0957 17.1536 12.3641 17.1536 12.6922C17.1536 12.7917 17.1736 12.8911 17.2236 12.9706H18.2836C18.3236 12.8911 18.3536 12.7917 18.3536 12.6922C18.3536 12.3641 18.0836 12.0957 17.7536 12.0957Z" fill="black"/>
<path d="M12.3193 12.2846C12.3193 12.3889 12.2343 12.4735 12.1293 12.4735C12.0244 12.4735 11.9393 12.3889 11.9393 12.2846C11.9393 12.1803 12.0244 12.0957 12.1293 12.0957C12.2343 12.0957 12.3193 12.1803 12.3193 12.2846Z" fill="white"/>
<path d="M17.5837 12.2846C17.5837 12.3889 17.4986 12.4735 17.3937 12.4735C17.2888 12.4735 17.2037 12.3889 17.2037 12.2846C17.2037 12.1803 17.2888 12.0957 17.3937 12.0957C17.4986 12.0957 17.5837 12.1803 17.5837 12.2846Z" fill="white"/>
<path d="M14.5944 12.5977L14.0279 14.4924C13.9086 14.8859 14.1869 15.2793 14.5845 15.2793H15.4194C15.8071 15.2793 16.0854 14.8859 15.976 14.4924L15.4095 12.5977C15.2902 12.1732 14.7236 12.1732 14.5944 12.5977Z" fill="#E5AF93"/>
<path d="M15.0088 16.4028C14.3776 16.4028 13.7791 16.2633 13.2786 16.024C13.1045 15.9443 12.9304 16.1237 13.0283 16.2633C13.4418 16.8513 14.1709 17.25 14.9979 17.25C15.8249 17.25 16.554 16.8613 16.9675 16.2633C17.0763 16.1138 16.8913 15.9343 16.7172 16.024C16.2384 16.2633 15.6399 16.4028 15.0088 16.4028Z" fill="#990838"/>
<path d="M20.5073 3.74641L21.2249 5.79365L21.3127 6.04519L20.5073 7.14924L21.9946 8L24.12 8C24.8924 8 25.294 8.91734 24.7482 9.46169C23.3579 10.873 21.4013 11.75 19.2387 11.75H10.7634C8.60084 11.75 6.64421 10.873 5.25397 9.46169C4.70817 8.91734 5.0995 8 5.88215 8L7.99463 8L9.4716 7.0226L8.67657 6.04519L8.76432 5.79365L9.4716 3.74641C10.1165 2.11287 12.0615 1.49764 13.4969 2.45231C14.4018 3.05693 15.5771 3.05693 16.482 2.45231C17.9278 1.49764 19.8624 2.12348 20.5073 3.74641Z" fill="#433B6B"/>
<path d="M13.6582 8H16.3418H22L21.3 6H8.7L8 8H13.6582Z" fill="#321B41"/>
</svg>

<svg xmlns="http://www.w3.org/2000/svg" width="32" height="32" fill="none"><path fill="#212121" d="M23.145 14.431c.234-.51.355-1.08.355-1.68 0-.79-.224-1.53-.607-2.14a3.96 3.96 0 0 1-.578-2.09v-.01s-1.228-1.037-1.83-1.73c-.661-.761-.745-2.15-1.791-2.15a.594.594 0 0 1-.495-.27c-.653-.98-1.726 0-2.949 0-1.213 0-2.287-.98-2.95 0a.57.57 0 0 1-.494.27c-1.214 0-1.078 1.765-1.736 2.75-.423.635-1.885 1.13-1.885 1.13v.01c0 .74-.196 1.47-.578 2.09A4.029 4.029 0 0 0 7 12.751c0 .6.13 1.17.355 1.68.074.17.074.37 0 .54-.224.5-.355 1.06-.355 1.66 0 2.09 1.587 3.79 3.537 3.79h9.426c1.95 0 3.537-1.7 3.537-3.79 0-.59-.13-1.16-.355-1.66a.679.679 0 0 1 0-.54Z"/><path fill="#433B6B" d="m23 29.99 1.912-3.674L23 22c-2.116-1.952-4.947-3-7.98-3-3.053 0-5.894 1.028-8.02 3l-1.517 4.316L7 30h16v-.01Z"/><path fill="#635994" d="M7 22v8H3c.157-.958.376-1.895.679-2.823l.031-.092A11.804 11.804 0 0 1 7 22ZM26.335 27.147c.291.934.52 1.889.665 2.853h-4v-8a11.752 11.752 0 0 1 3.335 5.147Z"/><path fill="#F4F4F4" d="M15.006 19c-1.387 0-2.726.17-4.006.49L13.373 30h3.296L19 19.48c-1.28-.31-2.619-.48-3.994-.48Z"/><path fill="#F92F60" d="m14.456 24.262-1.206-2.475h3.5l-1.206 2.475L16.5 30h-3l.956-5.738Z"/><path fill="#E6E6E6" d="M12.75 23.646 15 21.96l2.25 1.686c.298.223.738.067.81-.28L19 19h-8l.94 4.367c.072.346.512.502.81.279Z"/><path fill="#F4C6AD" d="M15 21.75s-2-.917-2-2.25v-1.75h4v1.75c0 1.333-2 2.25-2 2.25Z"/><path fill="#8D65C5" d="M10.804 17 13.5 29.99V30h-1.358l-5.105-8.47a.592.592 0 0 1 .226-.82l.54-.299c.237-.135.276-.453.07-.626l-2.204-1.918A.495.495 0 0 1 6.004 17h4.8ZM19.199 17 16.5 29.99V30h1.35l5.111-8.47a.592.592 0 0 0-.226-.82l-.542-.299c-.236-.135-.276-.453-.069-.626l2.207-1.918a.495.495 0 0 0-.335-.867h-4.797Z"/><path fill="#F4C6AD" d="M27.5 22c.551 0 1 .41 1 .912V25h-2v-2.088c0-.503.449-.912 1-.912Z"/><path fill="#00D1ED" d="M25.75 20a3 3 0 1 0 0-6 3 3 0 0 0 0 6Z"/><path fill="#321B41" d="M24.86 20.385A3.512 3.512 0 0 1 22.25 17c0-1.927 1.573-3.5 3.5-3.5s3.5 1.573 3.5 3.5c0 1.62-1.112 2.99-2.61 3.385.222.233.36.553.36.905v3.2c0 .71-.562 1.29-1.25 1.29s-1.25-.58-1.25-1.29v-3.2c0-.352.138-.672.36-.905ZM22.997 17a2.75 2.75 0 0 0 2.754 2.754A2.75 2.75 0 0 0 28.504 17a2.757 2.757 0 0 0-2.754-2.754A2.757 2.757 0 0 0 22.996 17Z"/><path fill="#F4F4F4" d="M26.625 17.25a.875.875 0 1 0 0-1.75.875.875 0 0 0 0 1.75Z"/><path fill="#FFD7C2" d="M23.863 24.021a.866.866 0 0 0-.863.822.85.85 0 0 0 .375.737.85.85 0 0 0-.375.715c0 .3.146.555.375.716a.85.85 0 0 0-.375.715c0 .299.146.555.375.715A.852.852 0 0 0 23.864 30h3.67c.53 0 .966-.438.966-.993v-4.014a.978.978 0 0 0-.967-.993h-3.67v.021Z"/><path fill="#F4C6AD" d="M11.5 12.847a1.75 1.75 0 1 1-3.5 0 1.75 1.75 0 0 1 3.5 0ZM22 12.847a1.75 1.75 0 1 1-3.5 0 1.75 1.75 0 0 1 3.5 0Z"/><path fill="#FFD7C2" d="M19.274 9.45h-3.475a4.18 4.18 0 0 1-3.447-1.826.278.278 0 0 0-.492.057l-.084.205a2.537 2.537 0 0 1-1.291 1.348c-.037.019-.074.028-.121.047-.25.13-.845.533-.864 1.572l.14 3.49C9.77 17.433 12.13 19.5 15 19.5s5.24-2.068 5.36-5.156l.14-3.313c-.01-1.479-1.022-1.572-1.226-1.582Z"/><path fill="#000" d="M12.05 11.22c.66 0 1.2.458 1.54.965-.292.09-.576.172-.858.253-.5.144-.991.285-1.503.463l-.56-.507a.485.485 0 0 1 .04-.766c.37-.258.87-.407 1.34-.407ZM18.204 11.22c-.66 0-1.2.458-1.54.965.308.096.609.183.909.27.478.137.954.275 1.452.446l.56-.507a.49.49 0 0 0-.04-.766 2.42 2.42 0 0 0-1.34-.407Z"/><path fill="#fff" d="M10.658 12.574a1.652 1.652 0 0 1 3.213.08.27.27 0 0 1-.27.317h-2.623a.327.327 0 0 1-.32-.397ZM19.586 12.574a1.641 1.641 0 0 0-1.592-1.233c-.8 0-1.46.567-1.611 1.312a.27.27 0 0 0 .27.318h2.612c.21 0 .37-.198.32-.397Z"/><path fill="#7D4533" d="M11.438 12.692c0-.576.47-1.044 1.051-1.044.58 0 1.05.468 1.05 1.044 0 .1-.02.19-.04.279h-2.02a.852.852 0 0 1-.04-.279ZM18.805 12.692c0-.576-.47-1.044-1.05-1.044-.581 0-1.052.468-1.052 1.044 0 .1.02.19.04.279h2.022c.03-.09.04-.18.04-.279Z"/><path fill="#000" d="M12.49 12.096a.6.6 0 0 1 .6.596c0 .1-.02.2-.07.279h-1.06a.637.637 0 0 1-.07-.279.6.6 0 0 1 .6-.596ZM17.754 12.096a.6.6 0 0 0-.6.596c0 .1.02.2.07.279h1.06c.04-.08.07-.18.07-.279a.6.6 0 0 0-.6-.596Z"/><path fill="#fff" d="M12.32 12.285a.19.19 0 0 1-.19.188.19.19 0 0 1-.19-.188.19.19 0 0 1 .19-.19.19.19 0 0 1 .19.19ZM17.584 12.285a.19.19 0 0 1-.19.188.19.19 0 0 1-.19-.188.19.19 0 0 1 .19-.19.19.19 0 0 1 .19.19Z"/><path fill="#E5AF93" d="m14.594 12.598-.566 1.894c-.12.394.159.787.556.787h.835c.388 0 .666-.393.557-.787l-.567-1.894a.42.42 0 0 0-.815 0Z"/><path fill="#990838" d="M15.009 16.403a4.04 4.04 0 0 1-1.73-.379c-.175-.08-.349.1-.25.24.413.587 1.142.986 1.969.986.827 0 1.556-.389 1.97-.987.108-.15-.077-.329-.25-.239a3.872 3.872 0 0 1-1.71.379Z"/><path fill="#433B6B" d="m20.507 3.746.718 2.048.088.251-.806 1.104L21.995 8h2.125c.772 0 1.174.917.628 1.462a7.713 7.713 0 0 1-5.51 2.288h-8.475a7.713 7.713 0 0 1-5.509-2.288C4.708 8.917 5.1 8 5.882 8h2.113l1.477-.977-.795-.978.087-.251.708-2.048c.645-1.633 2.59-2.248 4.025-1.294.905.605 2.08.605 2.985 0 1.446-.954 3.38-.329 4.025 1.294Z"/><path fill="#321B41" d="M13.658 8H22l-.7-2H8.7L8 8h5.658Z"/></svg>
